X: 1
T: Loch Erroch Side
C: Niel and Margaret Gow
R: march
N: NHHG Fiddle Workshop 2006   Calum MacKinnon
S: printed copy in Concord Slow Scottish Session collection
Z: 2015 John Chambers <jc:trillian.mit.edu>
M: 2/4
L: 1/16
K: C
|: "G"GF |\
"C"E2G2 "G"G3A "Cm"cBcd"C"c4 |\
"F"A3G A2c2 "Dm"dcde "G"d2D2 |\
"C"E2G2 "G"G3A "Am"cBcd "C"e3d |
"F"c3A "C"GAcE |\
"G"D4 "C"C2 :: "G"gf |\
"C"e2g2 c2ef gfef g4 |\
"Dm"f2a2 d2fg "F"agfg "G"a2gf |
[1 "C"e2g2 c2ef gfef g3c |\
"C"G3c e3c "G"d4 "C"c2 :|\
[2 "C"e3g "G"d3e "C"c3G "F"c2a2 |\
"C"c2G2 c3E "G"D4 "C"C2 |]
